!!!COM: Corelli, Arcangelo
!!!OTL: 
!!!ONM: Opus 4, No. 9
!!!OMV: 1
!!!CDT: 1653/2/17/-1713/1/8/
!!!OCY: Italia
**kern	**kern	**kern	**kern
*clefC	*clefC	*clefG	*clefG
*k[b-]	*k[b-]	*k[b-]	*k[b-]
*F:	*F:	*F:	*F:
*M4/4	*M4/4	*M4/4	*M4/4
=1	=1	=1	=1
8BB-	8BB-	16r	4dd
.	.	16dd	.
8B-	8B-	16ff	.
.	.	16dd	.
8A	8A	4cc	16r
.	.	.	16cc
8F	8F	.	16ff
.	.	.	16cc
8r	8r	16r	4dd
.	.	16dd	.
8B-	8B-	16ff	.
.	.	16b-	.
8A	8A	4cc	16r
.	.	.	16cc
8F	8F	.	16ff
.	.	.	16a
=2	=2	=2	=2
8r	8r	16r	4b-
.	.	16b-	.
8G	8G	16dd	.
.	.	16b-	.
8F	8F	4a	16r
.	.	.	16a
8D	8D	.	16dd
.	.	.	16f
8r	8r	16r	4g
.	.	16g	.
8E-	8E-	16b-	.
.	.	16g	.
8D	8D	4f	16r
.	.	.	16ff
8BB-	8BB-	.	16dd
.	.	.	16b-
=3	=3	=3	=3
8r	8r	16r	4gg
.	.	16b-	.
8E-	8E-	16ee-	.
.	.	16gg	.
8F	8F	4cc	16r
.	.	.	16a
8FF	8FF	.	16cc
.	.	.	16ff
8r	8r	16r	4dd
.	.	16dd	.
8B-	8B-	16ff	.
.	.	16b-	.
8A	8A	4cc	16r
.	.	.	16cc
8F	8F	.	16ff
.	.	.	16cc
=4	=4	=4	=4
8r	8r	16r	4dd
.	.	16ff	.
8B-	8B-	16bb-	.
.	.	16dd	.
8c	8c	4ee	16r
.	.	.	16gg
8C	8C	.	16ccc
.	.	.	16gg
8r	8r	16r	4aa
.	.	16cc	.
8F	8F	16dd	.
.	.	16f	.
8E	8E	4g	16r
.	.	.	16cc
8C	8C	.	16dd
.	.	.	16cc
=5	=5	=5	=5
8r	8r	16r	4b-
.	.	16f	.
8D	8D	16g	.
.	.	16f	.
8C	8C	4e	16r
.	.	.	16a
8AA	8AA	.	16b-
.	.	.	16a
8r	8r	16r	4g
.	.	16dd	.
8BB-	8BB-	16ee	.
.	.	16dd	.
8AA	8AA	16cc	16r
.	.	16f	16a
8FF	8FF	16a	16cc
.	.	16cc	16ff
=6	=6	=6	=6
8r	8r	16d	16dd
.	.	16e	16cc
8BB-	8BB-	8f	16b-
.	.	.	16a
8C	8C	8.f	4g
8CC	8CC	.	.
.	.	16e	.
2FF	2FF	2f	2f
=7	=7	=7	=7
8F	8F	16r	4a
.	.	16ff	.
8f	8f	16aa	.
.	.	16ff	.
8e	8e	4ccc	16r
.	.	.	16gg
8c	8c	.	16ccc
.	.	.	16gg
8r	8r	16r	4aa
.	.	16ff	.
8f	8f	16aa	.
.	.	16ff	.
8e	8e	4ccc	16r
.	.	.	16gg
8c	8c	.	16ccc
.	.	.	16gg
=8	=8	=8	=8
8r	8r	16r	4aa
.	.	16ff	.
8d	8d	16aa	.
.	.	16ff	.
8c#	8c#	4ee	16r
.	.	.	16aa
8A	8A	.	16ee
.	.	.	16aa
8r	8r	16r	4ff
.	.	16ff	.
8d	8d	16aa	.
.	.	16ff	.
8c#	8c#	4ee	16r
.	.	.	16aa
8A	8A	.	16ee
.	.	.	16aa
=9	=9	=9	=9
8r	8r	16r	4ff
.	.	16aa	.
8F	8F	16ff	.
.	.	16dd	.
8G	8G	4bb-	16r
.	.	.	16dd
8GG	8GG	.	16gg
.	.	.	16bb-
8r	8r	16r	8cc#
.	.	16aa	.
8D	8D	16gg	8dd
.	.	16ff	.
8A	8A	8.ee	8.dd
8AA	8AA	.	.
.	.	16ee	16cc#
=10	=10	=10	=10
8r	8r	16dd	8dd
.	.	16aa	.
8d	8d	16ff	8.ff
.	.	16dd	.
8B	8B	4gg	.
.	.	.	16ff
8G	8G	.	16ee-
.	.	.	16dd
8r	8r	16r	[4ee-
.	.	16gg	.
8c	8c	16ee-	.
.	.	16cc	.
8A	8A	4ff	16ee-]
.	.	.	16ee-
8F	8F	.	16dd
.	.	.	16cc
=11	=11	=11	=11
8r	8r	16r	4dd
.	.	16ff	.
8B-	8B-	16dd	.
.	.	16b-	.
8e-	8e-	16gg	16r
.	.	16ff	16dd
8E-	8E-	16ee-	16cc
.	.	16dd	16b-
8r	8r	16cc	4a
.	.	16ff	.
8D	8D	16bb-	.
.	.	16ff	.
8E-	8E-	16gg	16r
.	.	16b-	16gg
8C	8C	[8ee-	16ccc
.	.	.	16gg
=12	=12	=12	=12
8F	8F	8ee-]	16aa
.	.	.	16ff
8BB-	8BB-	8dd	16bb-
.	.	.	16b-
8F	8F	4cc	8.b-
8FF	8FF	.	.
.	.	.	16a
8r	8r	16b-	4b-
.	.	16ff	.
8D	8D	16bb-	.
.	.	16ff	.
8E-	8E-	16gg	16r
.	.	16b-	16gg
8C	8C	[8ee-	16ccc
.	.	.	16gg
=13	=13	=13	=13
8F	8F	8ee-]	16aa
.	.	.	16ff
8BB-	8BB-	8dd	16bb-
.	.	.	16b-
8F	8F	4cc	8.b-
8FF	8FF	.	.
.	.	.	16a
2BB-	2BB-	2b-	2b-
==	==	==	==
*-	*-	*-	*-
!!!RWG: This file only contains pitch and duration data.
!!!RWG: Transposing instruments are not transposed.
!!!RWG: Durations of rests and tied notes may be interpreted.
!!!RWG: Key is interpreted using the Humdrum key tool.
!!!SCA: 
!!!YOR: Chrysander Edition
!!!AGN: chamber
!!!AFT: stage1
!!!ENC: F. Bennion
!!!END: 1997/04/15
!!!AST: baroque
!!!YEC: Copyright 1994, Center for Computer Assisted Research in the Humanities
!!!YEM: Rights to all derivative electronic formats reserved.
!!!YEM: Refer to licensing agreement for further details.
!!!YEN: United States of America
!!!EED: W.B. Hewlett
!!!KEY: 1849700933
!!!EMD: Converted from MuseData to Humdrum Aug 9, 1999, by Bret Aarden using muse2kern.
!!!VTS: 4097738440
